assets/images/skills/bootstrap.svg

<svg fill="#fff" xmlns="http://www.w3.org/2000/svg"  viewBox="0 0 32 32" width="64px" height="64px"><path d="M 5 5 L 5 27 L 27 27 L 27 5 L 5 5 z M 7 7 L 25 7 L 25 25 L 7 25 L 7 7 z M 11 10 L 11 15.509766 L 11 21.990234 C 16.93 21.990234 18.116563 22.070234 19.226562 21.740234 C 19.876562 21.540234 21.65625 20.900391 21.65625 18.650391 C 21.65625 17.650391 21.356484 15.959062 19.396484 15.539062 L 19.396484 15.509766 L 19.027344 15.509766 C 20.027344 15.059766 20.65625 14.210937 20.65625 12.960938 C 20.65625 12.640937 20.746094 10 17.246094 10 L 11 10 z M 13 12 L 17 12 C 18.509 12 18.65625 12.853234 18.65625 13.490234 C 18.65625 15.044234 17.03 15 17 15 L 13 15 L 13 12 z M 13 17 L 17.759766 17 C 19.620766 17 19.65625 18.176469 19.65625 18.480469 C 19.65625 20.040469 18.044609 20 17.849609 20 L 13 20 L 13 17 z"/></svg>

<svg fill="#fff" xmlns="http://www.w3.org/2000/svg" viewBox="0 0 32 32" width="64" height="64"><path d="M5 5v22h22V5H5zm2 2h18v18H7V7zm4 3v11.99c5.93 0 7.117.08 8.227-.25.65-.2 2.43-.84 2.43-3.09 0-1-.3-2.69-2.26-3.11v-.03h-.37c1-.45 1.63-1.3 1.63-2.55 0-.32.09-2.96-3.41-2.96H11zm2 2h4c1.509 0 1.656.853 1.656 1.49C18.656 15.044 17.03 15 17 15h-4v-3zm0 5h4.76c1.86 0 1.896 1.176 1.896 1.48 0 1.56-1.611 1.52-1.806 1.52H13v-3z"/></svg>
